X: 32007
T: Peeler Creek
R: mazurka
M: 3/4
K: Gmajor
(3DEF|:G3 A B>c|d2 B2 G2|A>B A>G E2|G>A G>E D>E|
G2 G>A B>c|d2 B2 G>B|A>B A>G E>F|1 G4 (3DEF:|2 G4 (3Bcd||
|:e2 e>f g>f|e2 d2 (3Bcd|e2 e>f g>a|b2 a2 g>f|
e2 e>f g>f|e>f e>d B>G|A>B A>G E>F|1 G4 (3Bcd:|2 G4G2||

